X: 22605
T: Lady On The Island, The
R: reel
M: 4/4
K: Dmajor
BAFB AFEF|D2FA BAdB|BAFB A2AB|defd efdB|
BAFB AFEF|D2FA BAdB|BAFB A2AB|defd e2(3ABc||
d2fd efge|afdf edBA|d2fd efge|afdf e2(3ABc|
d2fd efge|afdf edBA|defg a2ab|afdf e2dB||

